X:1
T:Title
%%score ( 1 2 ) { ( 3 5 ) | 4 }
L:1/8
Q:1/4=100
M:4/4
K:Ab
V:1 treble nm="Grand Piano, Piano"
V:2 treble 
V:3 bass nm="Grand Piano, Piano"
V:5 bass 
V:4 bass 
V:1
 [CF]4 [DF]2 [DF]2 | [B,E]4 C4 | [CF]2 [CG]2 [FA]2 [EA]2 | [DB]4 [CG]4 | [CG]4 [CA]2 [EB]2 | %5
w: 1.~Ah,~ ho ly~|Je sus,~|how~ hast~ thou~ of|fen ded,~|that~ we~ to~|
 [Ec]4 [FA]4 | [Fd]2 [Fd]2 [Ec]2 [Ec]2 | [EB]4 [CA]4 |[M:2/4] [FA]4 | [EG]2 [DF]2 | %10
w: judge~ thee~|have~ in~ hate~ pre|ten ded?~|By~|foes~ de|
[M:4/4] [CE]4 [A,C]4 | [CE]2 [B,E]2 [CF]2 [CE]2 | [B,D]4 [=A,C]4 | [Cc]4 [DB]2 [CA]2 | G4 z4 |] %15
w: ri ded,~|by~ thine~ own~ re|jec ted,~|O~ most~ af|flic|
V:2
 x8 | x8 | x8 | x8 | x8 | x8 | x8 | x8 |[M:2/4] x4 | x4 |[M:4/4] x8 | x8 | x8 | x8 | %14
 C3 B, [A,F]4 |] %15
V:3
 A,4 A,2 B,2 | G,4 E,4 | A,2 G,2 F,2 A,2 | F,4 =E,4 | =E,4 F,2 G,2 | A,4 F,4 | z4 z2 A,2 | %7
 A,2 G,2 A,4 |[M:2/4] C4 | C2 A,2 |[M:4/4] A,4 E,4 | E,2 G,2 A,2 A,2 | F,4 F,4 | E,2 A,2 F,2 F,2 | %14
 F,2 =E,2 F,4 |] %15
V:4
 F,4 D,2 B,,2 | E,4 A,,4 | F,2 E,2 D,2 C,2 | B,,4 C,4 | C,4 z2 E,2 | A,,4 D,4 | B,,2 B,,2 C,4 | %7
 E,4 A,,4 |[M:2/4] F,,4 | C,2 D,2 |[M:4/4] A,,4 A,,4 | A,,2 G,,2 F,,2 A,,2 | B,,4 F,,4 | %13
 A,,4 B,,2 F,,2 | C,4 F,,4 |] %15
V:5
 x8 | x8 | x8 | x8 | x8 | x8 | B,2 F,G, A,2 z D, | x8 |[M:2/4] x4 | x4 |[M:4/4] x8 | x8 | x8 | x8 | %14
 x8 |] %15

